X:365
%%etbk:tnset id:168,pos:3,rep:3x,ant:
%%etbk:wsite http://www.trad.katesplacedoolin.com/tunes/paddyinlondon.html
%%etbk:color #ffffcc
%%etbk:pldat 2016-09-17T14:17,2016-09-16T15:12,2016-09-15T18:21,2016-09-13T16:12,2016-09-12T18:43,2015-08-16T14:21,2014-11-24T16:27,2014-05-17T20:37,2014-05-12T18:41,2014-05-11T12:58,2014-03-22T16:27,2014-02-15T16:10,2014-02-09T11:21,2013-10-20T15:04,2013-09-02T18:29,2013-05-18T13:41,2013-05-14T18:09,2013-05-07T18:54,2013-05-02T18:41
T:Mug of brown Ale, The
T:Paddy in London
Z: Piano Box Version by Martin Fleischmann
H: Created 2013-02-19 /  Last Modified 2016-09-13
R:Jig
M:6/8
K:Ador
|: "am"!2!e!1!AA !3!fAA | !4!ggg !5!age | "G"!1!d!3!B!2!A !1!G2!1!A | !2!B!2!B!2!B !4!d!2!B!4!d|
"am"!5!e!1!AA !3!f!1!AA | !4!ggg !5!age | "G"!1!d!2!B!1!d !4!g!1!d!2!B |1 !2!B!1!A!2!G "am"!1!A2A:|2 !2!B!1!A!2!G "am"!1!A2!2!e|
|: "am"!1!efg !4!aaa | !4!aba !4!a!3!g!2!e | "G"!1!d!2!B!1!d !4!g2!1!d | !3!gba !3!g!2!e!1!d|
"am"!1!efg !4!aaa| !4!aba !4!a!3!g!2!e |"G"!1!d!2!B!1!d !4!g!1!d!2!B  |1 !2!BA!2!G "am"!1!A2!2!e:|2 !2!BA!2!G "am"!1!A3||


